polaris-icons/icons/new-icons/PrintMajor.svg

<svg width="20" height="20" viewBox="0 0 20 20" fill="none" xmlns="http://www.w3.org/2000/svg">
<path fill-rule="evenodd" clip-rule="evenodd" d="M8.2 5H11.8C12.3848 5 12.7332 5.00117 12.9914 5.02227C13.1491 5.03514 13.2153 5.05214 13.2331 5.05765C13.3224 5.10469 13.3953 5.17765 13.4424 5.26693C13.4479 5.28469 13.4649 5.35094 13.4777 5.50855C13.4886 5.64172 13.4942 5.79885 13.497 6H6.50295C6.50581 5.79885 6.51139 5.64172 6.52227 5.50855C6.53514 5.35093 6.55214 5.28468 6.55765 5.26692C6.60469 5.17765 6.67765 5.10469 6.76692 5.05765C6.78468 5.05214 6.85093 5.03514 7.00855 5.02227C7.26681 5.00117 7.6152 5 8.2 5ZM14.9972 6L14.9981 6.07928C15.1523 6.11107 15.2855 6.1556 15.408 6.21799C15.7843 6.40973 16.0903 6.71569 16.282 7.09202C16.5 7.51984 16.5 8.0799 16.5 9.2V9.8C16.5 10.9201 16.5 11.4802 16.282 11.908C16.0903 12.2843 15.7843 12.5903 15.408 12.782C15.1705 12.903 14.8922 12.9569 14.5 12.9808L14.5 13.4404C14.5001 13.6848 14.5001 13.9497 14.4814 14.1789C14.4602 14.4385 14.4077 14.7813 14.2275 15.135C13.9878 15.6054 13.6054 15.9878 13.135 16.2275C12.7813 16.4077 12.4385 16.4602 12.1789 16.4814C11.9497 16.5001 11.6847 16.5001 11.4404 16.5H8.55957C8.31525 16.5001 8.05035 16.5001 7.82105 16.4814C7.56154 16.4602 7.21868 16.4077 6.86502 16.2275C6.39462 15.9878 6.01217 15.6054 5.77248 15.135C5.59229 14.7813 5.53981 14.4385 5.51861 14.1789C5.49987 13.9497 5.49994 13.6848 5.49999 13.4404L5.5 12.9808C5.10779 12.9569 4.82953 12.903 4.59202 12.782C4.21569 12.5903 3.90973 12.2843 3.71799 11.908C3.5 11.4802 3.5 10.9201 3.5 9.8V9.2C3.5 8.0799 3.5 7.51984 3.71799 7.09202C3.90973 6.71569 4.21569 6.40973 4.59202 6.21799C4.71446 6.1556 4.84773 6.11107 5.00187 6.07928L5.0028 6C5.01194 5.32495 5.05103 4.9197 5.21799 4.59202C5.40973 4.21569 5.71569 3.90973 6.09202 3.71799C6.51984 3.5 7.0799 3.5 8.2 3.5H11.8C12.9201 3.5 13.4802 3.5 13.908 3.71799C14.2843 3.90973 14.5903 4.21569 14.782 4.59202C14.949 4.9197 14.9881 5.32495 14.9972 6ZM6.7 7.5H13.3C13.8848 7.5 14.2332 7.50117 14.4914 7.52227C14.6491 7.53514 14.7153 7.55214 14.7331 7.55765C14.8224 7.60469 14.8953 7.67765 14.9424 7.76693C14.9479 7.78468 14.9649 7.85094 14.9777 8.00855C14.9988 8.26681 15 8.6152 15 9.2V9.8C15 10.3848 14.9988 10.7332 14.9777 10.9914C14.9649 11.1491 14.9479 11.2153 14.9424 11.2331C14.8953 11.3224 14.8224 11.3953 14.7331 11.4424C14.7156 11.4478 14.6515 11.4642 14.5 11.477V10.9L14.5 10.8865C14.5001 10.8333 14.5003 10.7205 14.4916 10.6137C14.4806 10.4792 14.4486 10.229 14.3093 9.95552C14.1415 9.62623 13.8738 9.35852 13.5445 9.19074C13.271 9.05141 13.0208 9.01937 12.8863 9.00839C12.7795 8.99966 12.6667 8.99988 12.6135 8.99998L12.6 9H7.4L7.38654 8.99998C7.33332 8.99988 7.22047 8.99966 7.11365 9.00839C6.9792 9.01937 6.72896 9.05141 6.45552 9.19074C6.12623 9.35852 5.85852 9.62623 5.69074 9.95552C5.55141 10.229 5.51937 10.4792 5.50839 10.6137C5.49966 10.7205 5.49988 10.8333 5.49998 10.8865L5.5 10.9V11.477C5.34852 11.4642 5.28436 11.4478 5.26692 11.4424C5.17765 11.3953 5.10469 11.3224 5.05765 11.2331C5.05214 11.2153 5.03514 11.1491 5.02227 10.9914C5.00117 10.7332 5 10.3848 5 9.8V9.2C5 8.6152 5.00117 8.26681 5.02227 8.00855C5.03514 7.85093 5.05214 7.78468 5.05765 7.76692C5.10469 7.67765 5.17765 7.60469 5.26692 7.55765C5.28468 7.55214 5.35093 7.53514 5.50855 7.52227C5.76681 7.50117 6.1152 7.5 6.7 7.5ZM13.2383 5.05945L13.2352 5.05833C13.2374 5.05904 13.2383 5.05943 13.2383 5.05945ZM13.4405 5.26175C13.4406 5.26169 13.441 5.26264 13.4417 5.26478L13.4405 5.26175ZM6.55945 5.26175L6.55833 5.26478C6.55904 5.26264 6.55943 5.26169 6.55945 5.26175ZM6.76175 5.05945C6.76169 5.05943 6.76264 5.05904 6.76478 5.05833L6.76175 5.05945ZM7.02725 10.6365C7 10.69 7 10.76 7 10.9V13.4C7 13.9601 7 14.2401 7.10899 14.454C7.20487 14.6422 7.35785 14.7951 7.54601 14.891C7.75992 15 8.03995 15 8.6 15H11.4C11.9601 15 12.2401 15 12.454 14.891C12.6422 14.7951 12.7951 14.6422 12.891 14.454C13 14.2401 13 13.9601 13 13.4V10.9C13 10.76 13 10.69 12.9728 10.6365C12.9488 10.5895 12.9105 10.5512 12.8635 10.5272C12.81 10.5 12.74 10.5 12.6 10.5H7.4C7.25999 10.5 7.18998 10.5 7.1365 10.5272C7.08946 10.5512 7.05122 10.5895 7.02725 10.6365ZM8 13.75C8 13.4739 8.22386 13.25 8.5 13.25H10.5C10.7761 13.25 11 13.4739 11 13.75C11 14.0261 10.7761 14.25 10.5 14.25H8.5C8.22386 14.25 8 14.0261 8 13.75ZM14.7383 7.55945C14.7383 7.55944 14.7388 7.55967 14.7383 7.55945ZM14.9405 7.76175C14.9406 7.76169 14.941 7.76264 14.9417 7.76478L14.9405 7.76175ZM14.9405 11.2383L14.9417 11.2352C14.941 11.2374 14.9406 11.2383 14.9405 11.2383ZM14.7383 11.4405C14.7383 11.4406 14.7374 11.441 14.7352 11.4417L14.7383 11.4405ZM5.26175 11.4405L5.26478 11.4417C5.26264 11.441 5.26169 11.4406 5.26175 11.4405ZM5.05945 11.2383C5.05943 11.2383 5.05904 11.2374 5.05833 11.2352L5.05945 11.2383ZM5.05945 7.76175L5.05833 7.76478C5.05904 7.76264 5.05943 7.76169 5.05945 7.76175ZM5.26222 7.55924C5.26219 7.55923 5.26188 7.55937 5.26222 7.55924ZM8.5 11.25C8.22386 11.25 8 11.4739 8 11.75C8 12.0261 8.22386 12.25 8.5 12.25H11.5C11.7761 12.25 12 12.0261 12 11.75C12 11.4739 11.7761 11.25 11.5 11.25H8.5Z" fill="#4A4A4A"/>
</svg>

<svg viewBox="0 0 20 20" xmlns="http://www.w3.org/2000/svg"><path fill-rule="evenodd" d="M8.2 5h3.6c.585 0 .933.001 1.191.022.158.013.224.03.242.036a.5.5 0 0 1 .21.209c.005.018.022.084.035.242.01.133.016.29.019.491h-6.994c.003-.201.008-.358.02-.491.012-.158.03-.224.035-.242a.5.5 0 0 1 .209-.21c.018-.005.084-.022.242-.035.258-.02.606-.022 1.191-.022Zm6.797 1 .001.08a1.6 1.6 0 0 1 .41.138 2 2 0 0 1 .874.874c.218.428.218.988.218 2.108v.6c0 1.12 0 1.68-.218 2.108a2 2 0 0 1-.874.874c-.237.121-.516.175-.908.199v.46c0 .244 0 .509-.019.738-.02.26-.073.602-.254.956a2.5 2.5 0 0 1-1.092 1.092c-.354.18-.697.233-.956.254-.23.02-.494.02-.739.019h-2.88c-.245 0-.51 0-.739-.019a2.518 2.518 0 0 1-.956-.254 2.5 2.5 0 0 1-1.093-1.092 2.518 2.518 0 0 1-.253-.956c-.02-.23-.02-.494-.019-.739v-.46c-.392-.023-.67-.077-.908-.198a2 2 0 0 1-.874-.874c-.218-.428-.218-.988-.218-2.108v-.6c0-1.12 0-1.68.218-2.108a2 2 0 0 1 .874-.874 1.6 1.6 0 0 1 .41-.139v-.079c.01-.675.049-1.08.216-1.408a2 2 0 0 1 .874-.874c.428-.218.988-.218 2.108-.218h3.6c1.12 0 1.68 0 2.108.218a2 2 0 0 1 .874.874c.167.328.206.733.215 1.408Zm-8.297 1.5h6.6c.585 0 .933.001 1.191.022.158.013.224.03.242.036a.5.5 0 0 1 .21.209c.005.018.022.084.035.242.02.258.022.606.022 1.191v.6c0 .585-.001.933-.022 1.191-.013.158-.03.224-.036.242a.5.5 0 0 1-.209.21 1.23 1.23 0 0 1-.233.034v-.591c0-.053 0-.165-.008-.272a1.753 1.753 0 0 0-.183-.658 1.75 1.75 0 0 0-.764-.765 1.752 1.752 0 0 0-.659-.183c-.106-.008-.22-.008-.272-.008h-5.227c-.054 0-.167 0-.273.008a1.752 1.752 0 0 0-.658.183 1.75 1.75 0 0 0-.765.765c-.14.273-.172.523-.183.658-.008.106-.008.22-.008.272v.591a1.23 1.23 0 0 1-.233-.035.5.5 0 0 1-.21-.209 1.255 1.255 0 0 1-.035-.242c-.02-.258-.022-.606-.022-1.191v-.6c0-.585.001-.933.022-1.191.013-.158.03-.224.036-.242a.5.5 0 0 1 .209-.21c.018-.005.084-.022.242-.035.258-.02.606-.022 1.191-.022Zm6.538-2.44-.003-.002.003.001Zm.203.202v.003-.003Zm-6.882 0v.003-.003Zm.203-.203h.003-.003Zm.265 5.577c-.027.054-.027.124-.027.264v2.5c0 .56 0 .84.109 1.054a1 1 0 0 0 .437.437c.214.109.494.109 1.054.109h2.8c.56 0 .84 0 1.054-.109a1 1 0 0 0 .437-.437c.109-.214.109-.494.109-1.054v-2.5c0-.14 0-.21-.027-.264a.251.251 0 0 0-.11-.109c-.053-.027-.123-.027-.263-.027h-5.2c-.14 0-.21 0-.264.027a.25.25 0 0 0-.109.11Zm.973 3.114a.5.5 0 0 1 .5-.5h2a.5.5 0 0 1 0 1h-2a.5.5 0 0 1-.5-.5Zm6.738-6.19Zm.203.202v.003-.003Zm0 3.476v-.003a.012.012 0 0 1 0 .003Zm-.203.203h-.003.003Zm-9.476 0h.003-.003Zm-.203-.203v-.003.003Zm0-3.476v.003-.003Zm.203-.203Zm3.238 3.691a.5.5 0 0 0 0 1h3a.5.5 0 0 0 0-1h-3Z" fill="#5C5F62"/></svg>
